static/icons/basic/grid-dark.svg

<svg width="360" height="267" viewBox="0 0 360 267" fill="none" xmlns="http://www.w3.org/2000/svg">
<path d="M832.636 -31.5396V284M760.441 -31.5396V284M688.249 -31.5396V284M616.056 -31.5396V284M543.856 -31.5396V284M471.661 -31.5396V284M399.474 -31.5396V284M327.278 -31.5396V284M255.078 -31.5396V284M182.885 -31.5396V284M110.694 -31.5396V284M38.4982 -31.5396V284M-33.6952 -31.5396V284M-105.895 -31.5396V284M-178.084 -31.5396V284M-250.278 -31.5396V284M-322.473 -31.5396V284M-394.671 -31.5396V284M-466.866 -31.5396V284M-539.058 -31.5396V284M-611.251 -31.5396V284M-683.451 122.475H904.831M-683.451 149.473H904.831M-683.451 176.471H904.831M-683.451 203.469H904.831M-683.451 230.464H904.831M-683.451 257.462H904.831M-683.451 -12.5091H904.831M-683.451 14.4864H904.831M-683.451 41.4837H904.831M-683.451 68.4818H904.831M-683.451 95.48H904.831" stroke="url(#paint0_radial_1612_2181)" stroke-width="0.919729" stroke-linecap="round" stroke-linejoin="round"/>
<defs>
<radialGradient id="paint0_radial_1612_2181" cx="0" cy="0" r="1" gradientUnits="userSpaceOnUse" gradientTransform="translate(110.69 126.23) rotate(90) scale(157.77 1158.59)">
<stop stop-color="white" stop-opacity="0.12"/>
<stop offset="1" stop-color="#121212" stop-opacity="0"/>
</radialGradient>
</defs>
</svg>

<svg xmlns="http://www.w3.org/2000/svg" width="360" height="267" fill="none"><path stroke="url(#a)" stroke-linecap="round" stroke-linejoin="round" stroke-width=".92" d="M832.636-31.54V284M760.441-31.54V284M688.249-31.54V284M616.056-31.54V284m-72.2-315.54V284M471.661-31.54V284M399.474-31.54V284M327.278-31.54V284m-72.2-315.54V284M182.885-31.54V284M110.694-31.54V284M38.498-31.54V284M-33.695-31.54V284m-72.2-315.54V284m-72.189-315.54V284m-72.194-315.54V284m-72.195-315.54V284m-72.198-315.54V284m-72.195-315.54V284m-72.192-315.54V284m-72.193-315.54V284m-72.2-161.525H904.831m-1588.282 26.998H904.831m-1588.282 26.998H904.831m-1588.282 26.998H904.831m-1588.282 26.995H904.831m-1588.282 26.998H904.831M-683.451-12.509H904.831M-683.451 14.486H904.831M-683.451 41.484H904.831M-683.451 68.482H904.831M-683.451 95.48H904.831"/><defs><radialGradient id="a" cx="0" cy="0" r="1" gradientTransform="matrix(0 157.77 -1158.59 0 110.69 126.23)" gradientUnits="userSpaceOnUse"><stop stop-color="#fff" stop-opacity=".12"/><stop offset="1" stop-color="#121212" stop-opacity="0"/></radialGradient></defs></svg>
